src/assets/images/icon_grid_accumulator.svg

<svg width="500" height="500" viewBox="0 0 500 500" fill="none" xmlns="http://www.w3.org/2000/svg">
<ellipse cx="70.8274" cy="361.183" rx="15.6056" ry="28.2718" transform="rotate(-29.3731 70.8274 361.183)" fill="#FFDA00" fill-opacity="0.7"/>
<path d="M124.004 305.499L90.0037 293.499L147.004 260.499L159.504 242.999L182.504 184.499L277.504 134.999L318.004 120.499L348.504 122.999L383.004 151.499L359.004 154.499L264.004 191.499L225.504 215.499L199.504 258.999L178.504 276.999L124.004 305.499Z" fill="#FFDA00" fill-opacity="0.7"/>
<path d="M185.856 359.665C185.866 360.775 185.876 361.655 187.056 362.505C197.446 369.945 208.336 376.465 220.576 380.385C226.816 382.385 233.216 383.685 239.756 384.595C246.516 385.535 253.236 385.575 259.906 384.985C271.136 383.995 281.826 380.745 291.826 375.465C302.386 369.885 312.506 363.515 322.816 357.495C331.566 352.385 340.516 347.575 349.106 342.225C359.576 335.705 370.646 330.215 380.806 323.165C389.666 317.015 396.966 309.535 402.786 300.495C408.356 291.845 412.426 282.565 414.796 272.585C415.856 268.115 416.576 263.565 417.126 258.975C417.796 253.375 417.796 247.795 417.566 242.235C417.086 230.705 416.006 219.265 412.506 208.105C410.896 202.965 409.336 197.795 407.726 192.655C406.536 188.865 403.876 185.915 402.046 182.485C399.126 177.025 397.186 171.045 393.456 166.015C386.116 156.135 377.876 147.065 368.826 138.745C359.666 130.325 349.236 123.765 337.956 118.695C331.006 115.575 323.576 113.625 316.006 112.385C310.146 111.425 304.256 110.865 298.336 110.885C280.706 110.935 264.216 115.455 248.756 123.865C230.336 133.885 212.236 144.455 194.186 155.115C184.606 160.775 174.746 165.945 165.686 172.485C153.916 180.975 144.136 191.235 136.906 203.825C131.516 213.205 127.946 223.335 125.826 233.895C124.606 239.985 123.756 246.305 124.106 252.455C124.356 256.845 123.376 261.595 125.726 265.795" stroke="#2071B5" stroke-width="4.21" stroke-linecap="round" stroke-linejoin="round"/>
<path d="M130.681 263.307C131.621 263.147 132.501 263.217 133.511 262.777C138.651 260.547 144.261 260.547 149.561 261.297C155.681 262.157 161.351 264.847 166.641 268.237C179.321 276.367 187.701 287.977 193.911 301.407C197.081 308.257 199.351 315.447 200.601 322.817C202.221 332.347 202.061 341.837 196.391 350.387C192.961 355.557 187.921 358.507 182.431 360.917C179.791 362.077 177.351 363.607 174.391 364.107C172.961 364.357 172.131 366.137 171.001 367.127C163.241 373.917 147.261 387.487 140.261 391.207C138.971 391.887 137.591 392.597 136.341 393.267C130.231 396.517 124.961 394.457 119.521 391.627C113.851 388.677 108.201 385.727 102.811 382.297" stroke="#2071B5" stroke-width="4.21" stroke-linecap="round" stroke-linejoin="round"/>
<path d="M118.509 270.751C119.399 271.851 121.289 273.251 122.309 273.131C133.069 271.781 141.459 277.321 149.509 282.941C159.099 289.631 165.699 299.111 170.969 309.481C175.289 317.991 178.429 326.851 179.379 336.431C179.959 342.291 179.549 348.041 178.469 353.801C178.319 354.621 178.029 355.161 177.479 355.651C175.429 357.471 175.919 360.541 174.089 362.491C173.749 362.851 174.409 363.261 174.379 363.711" stroke="#2071B5" stroke-width="4.21" stroke-linecap="round" stroke-linejoin="round"/>
<path d="M417.012 232.965C420.752 232.535 438.212 216.285 441.472 209.665C442.802 206.965 443.512 204.075 443.372 200.995C443.282 199.025 443.512 197.075 443.732 195.095C444.012 192.585 442.812 190.135 442.262 187.705C440.692 180.705 438.842 173.695 435.582 167.235C430.832 157.805 425.162 149.235 416.522 142.575C410.442 137.895 404.192 133.905 397.182 130.955C394.892 129.985 392.562 128.375 390.342 129.935C388.532 131.205 375.242 137.595 371.602 140.275" stroke="#2071B5" stroke-width="4.21" stroke-linecap="round" stroke-linejoin="round"/>
<path d="M79.8721 389.425C70.6021 387.845 64.6821 381.585 59.4521 374.525C54.4721 367.805 51.5421 360.075 50.2421 351.905C49.3821 346.465 50.7921 341.375 54.3321 336.645C57.6721 332.185 62.4721 330.395 66.8721 327.775C72.6821 324.305 78.5221 320.885 84.2221 317.235C85.4621 316.435 86.0521 315.075 86.8921 314.035C91.7921 307.965 98.9321 307.775 105.602 311.615C115.292 317.205 121.782 325.505 126.342 335.505C129.392 342.185 131.232 349.245 131.222 356.575C131.212 364.145 127.932 370.165 121.082 373.935C120.482 374.265 119.862 374.605 119.222 374.525C114.072 373.845 110.222 376.625 106.172 379.145C102.842 381.215 98.9221 382.365 96.0321 385.145C95.1821 385.955 94.1621 385.275 93.5021 386.025" stroke="#2071B5" stroke-width="4.21" stroke-linecap="round" stroke-linejoin="round"/>
<path d="M444.036 191.151C445.036 191.231 449.566 186.651 449.816 183.031C450.416 174.551 449.746 166.211 445.526 158.561C440.836 150.051 434.676 142.991 425.366 139.401C422.126 138.151 418.166 137.921 415.006 140.431" stroke="#2071B5" stroke-width="4.21" stroke-linecap="round" stroke-linejoin="round"/>
<path d="M80.4828 389.104C83.3328 387.484 86.5628 386.774 88.6628 383.604C91.1928 379.774 91.1028 375.784 90.6329 371.754C89.8829 365.324 87.9828 359.184 84.8428 353.444C83.4728 350.934 81.5629 348.804 80.1729 346.334" stroke="#2071B5" stroke-width="4.21" stroke-linecap="round" stroke-linejoin="round"/>
<path d="M103.436 335.502C109.846 342.572 113.186 351.112 114.806 360.312C115.456 364.012 115.076 367.902 113.356 371.452" stroke="#2071B5" stroke-width="4.21" stroke-linecap="round" stroke-linejoin="round"/>
<path d="M115.198 342.327C116.888 346.507 119.328 350.447 119.818 355.037C120.348 360.047 121.048 365.097 117.728 369.637C116.868 370.817 116.008 372.247 116.438 373.937" stroke="#2071B5" stroke-width="4.21" stroke-linecap="round" stroke-linejoin="round"/>
<path d="M130.701 263.301C118.221 270.521 96.1111 283.041 83.2911 289.651C78.1611 292.301 75.1711 296.951 73.5011 302.081C71.4411 308.421 70.7711 315.121 71.1311 321.871C71.1811 322.831 71.8911 323.451 71.8211 324.351" stroke="#2071B5" stroke-width="4.21" stroke-linecap="round" stroke-linejoin="round"/>
<path d="M100.964 355.963C102.344 361.353 103.994 366.683 102.864 372.393C102.414 374.683 101.834 376.913 100.604 378.863C99.924 379.933 99.464 380.803 100.034 381.993" stroke="#2071B5" stroke-width="4.21" stroke-linecap="round" stroke-linejoin="round"/>
<path d="M137.488 392.66C136.888 392.33 146.648 376.1 146.988 373.93C148.238 365.91 147.828 351.56 147.838 343.56C147.838 339.86 125.738 307.84 123.628 305.24C121.568 302.69 91.5079 294.3 88.5579 293.83C85.1779 293.29 77.1079 299.46 74.0879 300.97" stroke="#2071B5" stroke-width="4.21" stroke-linecap="round" stroke-linejoin="round"/>
<path d="M80.4958 372.618C67.7458 370.008 64.9658 356.938 66.5458 351.918C67.3858 349.248 69.4358 348.368 71.8058 349.768C72.2958 350.058 72.7058 350.528 73.0458 350.998C76.2058 355.278 79.8558 358.368 81.4558 363.518C82.0558 365.468 82.4758 370.868 81.1158 373.118" stroke="#2071B5" stroke-width="4.21" stroke-linecap="round" stroke-linejoin="round"/>
<path d="M409.371 288.438C413.451 283.028 405.931 235.568 400.281 219.148C386.731 179.758 363.191 154.778 330.061 127.148C318.251 117.298 295.851 111.578 289.701 111.948" stroke="#2071B5" stroke-width="4.21" stroke-linecap="round" stroke-linejoin="round"/>
<path d="M379.123 323.17C383.673 317.14 375.293 264.21 368.993 245.89C353.883 201.96 327.623 174.11 290.683 143.29C277.513 132.3 252.533 125.93 245.673 126.34" stroke="#2071B5" stroke-width="4.21" stroke-linecap="round" stroke-linejoin="round"/>
<path d="M334.963 346.549C339.513 340.519 331.133 287.589 324.833 269.269C309.723 225.339 283.463 197.489 246.523 166.669C233.353 155.679 208.373 149.309 201.513 149.719" stroke="#2071B5" stroke-width="4.21" stroke-linecap="round" stroke-linejoin="round"/>
<path d="M328.719 350.877C333.269 344.847 324.889 291.917 318.589 273.597C303.479 229.667 277.219 201.817 240.279 170.997C227.109 160.007 202.129 153.637 195.269 154.047" stroke="#2071B5" stroke-width="4.21" stroke-linecap="round" stroke-linejoin="round"/>
<path d="M291.66 375.956C296.21 369.926 287.83 316.996 281.53 298.676C266.42 254.746 240.16 226.896 203.22 196.076C190.05 185.086 165.07 178.716 158.21 179.126" stroke="#2071B5" stroke-width="4.21" stroke-linecap="round" stroke-linejoin="round"/>
<path d="M185.846 359.665C296.786 326.665 165.876 191.155 125.726 265.775" stroke="#2071B5" stroke-width="4.21" stroke-linecap="round" stroke-linejoin="round"/>
<path d="M400.296 144.734C429.116 158.224 435.356 206.244 437.486 213.384" stroke="#2071B5" stroke-width="4.21" stroke-linecap="round" stroke-linejoin="round"/>
<path d="M394.502 151.864C423.322 165.354 429.562 213.374 431.692 220.514" stroke="#2071B5" stroke-width="4.21" stroke-linecap="round" stroke-linejoin="round"/>
<path d="M79.5595 345.718C77.0295 342.288 73.7195 339.758 70.2695 337.338C67.3495 335.288 60.3595 333.908 55.6895 335.288" stroke="#2071B5" stroke-width="4.21" stroke-linecap="round" stroke-linejoin="round"/>
<path d="M105.89 352.855C106.71 357.505 108.55 361.955 108.42 366.805C108.38 368.405 107.96 369.905 107.75 371.455" stroke="#2071B5" stroke-width="4.21" stroke-linecap="round" stroke-linejoin="round"/>
<path d="M122.023 343.561C123.883 348.451 125.703 353.351 125.133 358.751C125.023 359.841 125.463 361.131 123.883 361.541" stroke="#2071B5" stroke-width="4.21" stroke-linecap="round" stroke-linejoin="round"/>
<path d="M70.3502 349.228C65.4002 348.558 60.6202 350.318 60.7002 356.258C60.8002 363.478 64.6902 369.118 70.1102 373.078C72.9202 375.128 77.3302 376.228 81.1102 373.108" stroke="#2071B5" stroke-width="4.21" stroke-linecap="round" stroke-linejoin="round"/>
<path d="M102.787 325.583C98.7069 321.973 93.5869 320.753 88.5369 319.383" stroke="#2071B5" stroke-width="4.21" stroke-linecap="round" stroke-linejoin="round"/>
<path d="M109.628 359.041C109.878 362.861 111.478 366.561 110.358 370.541C110.108 371.421 109.338 372.261 109.628 373.301" stroke="#2071B5" stroke-width="4.21" stroke-linecap="round" stroke-linejoin="round"/>
<path d="M96.4719 362.076C99.2319 367.416 97.4919 385.246 92.3919 386.466C89.4519 387.166 83.6919 391.386 80.4919 389.726" stroke="#2071B5" stroke-width="4.21" stroke-linecap="round" stroke-linejoin="round"/>
<path d="M88.5369 322.477C91.8969 324.667 95.5469 326.437 98.4569 329.297" stroke="#2071B5" stroke-width="4.21" stroke-linecap="round" stroke-linejoin="round"/>
<path d="M122.646 365.866C122.846 369.776 120.426 371.906 117.376 373.616" stroke="#2071B5" stroke-width="4.21" stroke-linecap="round" stroke-linejoin="round"/>
<path d="M73.0569 333.628C75.8769 334.768 78.1969 336.658 80.4969 338.588" stroke="#2071B5" stroke-width="4.21" stroke-linecap="round" stroke-linejoin="round"/>
<path d="M89.7859 328.677C91.8559 330.537 94.1159 332.167 95.9859 334.257" stroke="#2071B5" stroke-width="4.21" stroke-linecap="round" stroke-linejoin="round"/>
<path d="M78.0129 327.453C76.1529 326.943 74.3129 326.343 72.4329 325.903" stroke="#2071B5" stroke-width="4.21" stroke-linecap="round" stroke-linejoin="round"/>
<path d="M87.927 333.948C89.617 335.668 91.407 337.288 92.887 339.218" stroke="#2071B5" stroke-width="4.21" stroke-linecap="round" stroke-linejoin="round"/>
<path d="M85.4438 316.609C86.4238 317.199 87.5039 316.879 88.5439 316.919" stroke="#2071B5" stroke-width="4.21" stroke-linecap="round" stroke-linejoin="round"/>
<path d="M81.4214 319.688C82.2914 320.358 83.2714 319.948 84.2114 319.998" stroke="#2071B5" stroke-width="4.21" stroke-linecap="round" stroke-linejoin="round"/>
<path d="M120.281 324.924L122.661 305.104L149.091 291.864L176.081 277.524L199.391 259.524L224.481 214.704L263.171 191.154L270.881 188.234L319.47 169.164L359.511 154.024L380.431 151.864" stroke="#2071B5" stroke-width="4.21" stroke-linecap="round" stroke-linejoin="round"/>
<path d="M89.7769 310.3L88.5369 293.82L123.867 273.83C127.087 275.96 130.807 277.08 134.107 279.08C150.867 289.28 163.037 303.18 169.837 321.82C172.427 328.93 174.487 336.02 175.397 343.54C175.847 347.19 176.067 350.76 175.657 354.4C175.587 355.02 175.987 355.76 176.547 356.25" stroke="#2071B5" stroke-width="4.21" stroke-linecap="round" stroke-linejoin="round"/>
<path d="M124.942 272.359L146.792 260.979L159.022 243.669L181.122 185.469L223.312 161.209L232.272 158.079L277.582 135.229L319.532 120.499L346.822 123.079" stroke="#2071B5" stroke-width="4.21" stroke-linecap="round" stroke-linejoin="round"/>
<path d="M130.678 348.707L146.968 342.317L173.138 334.257L178.788 332.117L200.798 331.467L226.478 327.437L283.848 311.127L324.168 295.997L330.018 292.007L374.578 268.347L404.828 236.967L413.968 213.377" stroke="#2071B5" stroke-width="4.21" stroke-linecap="round" stroke-linejoin="round"/>
</svg>

<?xml version="1.0" encoding="UTF-8"?>
<svg id="icons" xmlns="http://www.w3.org/2000/svg" viewBox="0 0 500 500">
  <defs>
    <style>
      .cls-1 {
        fill: none;
        stroke: #000;
        stroke-linecap: round;
        stroke-linejoin: round;
        stroke-width: .9px;
      }
    </style>
  </defs>
  <path class="cls-1" d="M185.85,359.67c.01,1.11.02,1.99,1.2,2.84,10.39,7.44,21.28,13.96,33.52,17.88,6.24,2,12.64,3.3,19.18,4.21,6.76.94,13.48.98,20.15.39,11.23-.99,21.92-4.24,31.92-9.52,10.56-5.58,20.68-11.95,30.99-17.97,8.75-5.11,17.7-9.92,26.29-15.27,10.47-6.52,21.54-12.01,31.7-19.06,8.86-6.15,16.16-13.63,21.98-22.67,5.57-8.65,9.64-17.93,12.01-27.91,1.06-4.47,1.78-9.02,2.33-13.61.67-5.6.67-11.18.44-16.74-.48-11.53-1.56-22.97-5.06-34.13-1.61-5.14-3.17-10.31-4.78-15.45-1.19-3.79-3.85-6.74-5.68-10.17-2.92-5.46-4.86-11.44-8.59-16.47-7.34-9.88-15.58-18.95-24.63-27.27-9.16-8.42-19.59-14.98-30.87-20.05-6.95-3.12-14.38-5.07-21.95-6.31-5.86-.96-11.75-1.52-17.67-1.5-17.63.05-34.12,4.57-49.58,12.98-18.42,10.02-36.52,20.59-54.57,31.25-9.58,5.66-19.44,10.83-28.5,17.37-11.77,8.49-21.55,18.75-28.78,31.34-5.39,9.38-8.96,19.51-11.08,30.07-1.22,6.09-2.07,12.41-1.72,18.56.25,4.39-.73,9.14,1.62,13.34"/>
  <path class="cls-1" d="M130.69,263.3c.94-.16,1.82-.09,2.83-.53,5.14-2.23,10.75-2.23,16.05-1.48,6.12.86,11.79,3.55,17.08,6.94,12.68,8.13,21.06,19.74,27.27,33.17,3.17,6.85,5.44,14.04,6.69,21.41,1.62,9.53,1.46,19.02-4.21,27.57-3.43,5.17-8.47,8.12-13.96,10.53-2.64,1.16-5.08,2.69-8.04,3.19-1.43.25-2.26,2.03-3.39,3.02-7.76,6.79-23.74,20.36-30.74,24.08-1.29.68-2.67,1.39-3.92,2.06-6.11,3.25-11.38,1.19-16.82-1.64-5.67-2.95-11.32-5.9-16.71-9.33"/>
  <path class="cls-1" d="M118.52,270.75c.89,1.1,2.78,2.5,3.8,2.38,10.76-1.35,19.15,4.19,27.2,9.81,9.59,6.69,16.19,16.17,21.46,26.54,4.32,8.51,7.46,17.37,8.41,26.95.58,5.86.17,11.61-.91,17.37-.15.82-.44,1.36-.99,1.85-2.05,1.82-1.56,4.89-3.39,6.84-.34.36.32.77.29,1.22"/>
  <path class="cls-1" d="M417.02,232.97c3.74-.43,21.2-16.68,24.46-23.3,1.33-2.7,2.04-5.59,1.9-8.67-.09-1.97.14-3.92.36-5.9.28-2.51-.92-4.96-1.47-7.39-1.57-7-3.42-14.01-6.68-20.47-4.75-9.43-10.42-18-19.06-24.66-6.08-4.68-12.33-8.67-19.34-11.62-2.29-.97-4.62-2.58-6.84-1.02-1.81,1.27-15.1,7.66-18.74,10.34"/>
  <path class="cls-1" d="M79.87,389.42c-9.27-1.58-15.19-7.84-20.42-14.9-4.98-6.72-7.91-14.45-9.21-22.62-.86-5.44.55-10.53,4.09-15.26,3.34-4.46,8.14-6.25,12.54-8.87,5.81-3.47,11.65-6.89,17.35-10.54,1.24-.8,1.83-2.16,2.67-3.2,4.9-6.07,12.04-6.26,18.71-2.42,9.69,5.59,16.18,13.89,20.74,23.89,3.05,6.68,4.89,13.74,4.88,21.07-.01,7.57-3.29,13.59-10.14,17.36-.6.33-1.22.67-1.86.59-5.15-.68-9,2.1-13.05,4.62-3.33,2.07-7.25,3.22-10.14,6-.85.81-1.87.13-2.53.88"/>
  <path class="cls-1" d="M444.03,191.15c1,.08,5.53-4.5,5.78-8.12.6-8.48-.07-16.82-4.29-24.47-4.69-8.51-10.85-15.57-20.16-19.16-3.24-1.25-7.2-1.48-10.36,1.03"/>
  <path class="cls-1" d="M80.49,389.11c2.85-1.62,6.08-2.33,8.18-5.5,2.53-3.83,2.44-7.82,1.97-11.85-.75-6.43-2.65-12.57-5.79-18.31-1.37-2.51-3.28-4.64-4.67-7.11"/>
  <path class="cls-1" d="M103.42,335.5c6.41,7.07,9.75,15.61,11.37,24.81.65,3.7.27,7.59-1.45,11.14"/>
  <path class="cls-1" d="M115.2,342.32c1.69,4.18,4.13,8.12,4.62,12.71.53,5.01,1.23,10.06-2.09,14.6-.86,1.18-1.72,2.61-1.29,4.3"/>
  <path class="cls-1" d="M130.69,263.3c-12.48,7.22-34.59,19.74-47.41,26.35-5.13,2.65-8.12,7.3-9.79,12.43-2.06,6.34-2.73,13.04-2.37,19.79.05.96.76,1.58.69,2.48"/>
  <path class="cls-1" d="M100.95,355.95c1.38,5.39,3.03,10.72,1.9,16.43-.45,2.29-1.03,4.52-2.26,6.47-.68,1.07-1.14,1.94-.57,3.13"/>
  <path class="cls-1" d="M137.48,392.66c-.6-.33,9.16-16.56,9.5-18.73,1.25-8.02.84-22.37.85-30.37,0-3.7-22.1-35.72-24.21-38.32-2.06-2.55-32.12-10.94-35.07-11.41-3.38-.54-11.45,5.63-14.47,7.14"/>
  <path class="cls-1" d="M80.49,372.62c-12.75-2.61-15.53-15.68-13.95-20.7.84-2.67,2.89-3.55,5.26-2.15.49.29.9.76,1.24,1.23,3.16,4.28,6.81,7.37,8.41,12.52.6,1.95,1.02,7.35-.34,9.6"/>
  <path class="cls-1" d="M409.37,288.44c4.08-5.41-3.44-52.87-9.09-69.29-13.55-39.39-37.09-64.37-70.22-92-11.81-9.85-34.21-15.57-40.36-15.2"/>
  <path class="cls-1" d="M379.12,323.16c4.55-6.03-3.83-58.96-10.13-77.28-15.11-43.93-41.37-71.78-78.31-102.6-13.17-10.99-38.15-17.36-45.01-16.95"/>
  <path class="cls-1" d="M334.96,346.55c4.55-6.03-3.83-58.96-10.13-77.28-15.11-43.93-41.37-71.78-78.31-102.6-13.17-10.99-38.15-17.36-45.01-16.95"/>
  <path class="cls-1" d="M328.73,350.88c4.55-6.03-3.83-58.96-10.13-77.28-15.11-43.93-41.37-71.78-78.31-102.6-13.17-10.99-38.15-17.36-45.01-16.95"/>
  <path class="cls-1" d="M291.67,375.96c4.55-6.03-3.83-58.96-10.13-77.28-15.11-43.93-41.37-71.78-78.31-102.6-13.17-10.99-38.15-17.36-45.01-16.95"/>
  <path class="cls-1" d="M185.85,359.67c110.94-33-19.97-168.51-60.12-93.89"/>
  <path class="cls-1" d="M400.29,144.73c28.82,13.49,35.06,61.51,37.19,68.65"/>
  <path class="cls-1" d="M394.51,151.87c28.82,13.49,35.06,61.51,37.19,68.65"/>
  <path class="cls-1" d="M79.56,345.72c-2.53-3.43-5.84-5.96-9.29-8.38-2.92-2.05-9.91-3.43-14.58-2.05"/>
  <path class="cls-1" d="M105.9,352.85c.82,4.65,2.66,9.1,2.53,13.95-.04,1.6-.46,3.1-.67,4.65"/>
  <path class="cls-1" d="M122.02,343.56c1.86,4.89,3.68,9.79,3.11,15.19-.11,1.09.33,2.38-1.25,2.79"/>
  <path class="cls-1" d="M70.35,349.23c-4.95-.67-9.73,1.09-9.65,7.03.1,7.22,3.99,12.86,9.41,16.82,2.81,2.05,7.22,3.15,11,.03"/>
  <path class="cls-1" d="M102.8,325.58c-4.08-3.61-9.2-4.83-14.25-6.2"/>
  <path class="cls-1" d="M109.62,359.05c.25,3.82,1.85,7.52.73,11.5-.25.88-1.02,1.72-.73,2.76"/>
  <path class="cls-1" d="M96.47,362.08c2.76,5.34,1.02,23.17-4.08,24.39-2.94.7-8.7,4.92-11.9,3.26"/>
  <path class="cls-1" d="M88.55,322.48c3.36,2.19,7.01,3.96,9.92,6.82"/>
  <path class="cls-1" d="M122.64,365.87c.2,3.91-2.22,6.04-5.27,7.75"/>
  <path class="cls-1" d="M73.06,333.64c2.82,1.14,5.14,3.03,7.44,4.96"/>
  <path class="cls-1" d="M89.79,328.68c2.07,1.86,4.33,3.49,6.2,5.58"/>
  <path class="cls-1" d="M78.01,327.44c-1.86-.51-3.7-1.11-5.58-1.55"/>
  <path class="cls-1" d="M87.93,333.95c1.69,1.72,3.48,3.34,4.96,5.27"/>
  <path class="cls-1" d="M85.45,316.6c.98.59,2.06.27,3.1.31"/>
  <path class="cls-1" d="M81.42,319.69c.87.67,1.85.26,2.79.31"/>
  <polyline class="cls-1" points="120.27 324.93 122.65 305.11 149.08 291.87 176.07 277.53 199.38 259.53 224.47 214.71 263.16 191.16 270.87 188.24 319.46 169.17 359.5 154.03 380.42 151.87"/>
  <path class="cls-1" d="M89.79,310.3l-1.24-16.48,35.33-19.99c3.22,2.13,6.94,3.25,10.24,5.25,16.76,10.2,28.93,24.1,35.73,42.74,2.59,7.11,4.65,14.2,5.56,21.72.45,3.65.67,7.22.26,10.86-.07.62.33,1.36.89,1.85"/>
  <polyline class="cls-1" points="124.94 272.36 146.79 260.98 159.02 243.67 181.12 185.47 223.31 161.21 232.27 158.08 277.58 135.23 319.53 120.5 346.82 123.08"/>
  <polyline class="cls-1" points="130.69 348.71 146.98 342.32 173.15 334.26 178.8 332.12 200.81 331.47 226.49 327.44 283.86 311.13 324.18 296 330.03 292.01 374.59 268.35 404.84 236.97 413.98 213.38"/>
</svg>
